X:1
T:Title
%%score { ( 1 4 ) | ( 2 3 ) }
L:1/8
M:4/4
K:Eb
V:1 treble nm="Grand Piano"
V:4 treble 
V:2 bass 
V:3 bass 
V:1
 z4 z2[Q:1/4=100] B,2 | [B,G]3 G [B,G]FB,F | [G,E]6 B,2 | [A,F]3 =E F2 _G2 |[M:3/4] [B,G]6 | %5
[M:1/4] B,2 |[M:4/4] [B,G]3 G [B,G]EGB | [CA]6 A2 | [B,G]3 F [G,E]2 [B,D]2 | %9
[M:5/8] [G,E]-[G,E]- [G,E]3 |[M:3/8] AA>A |[M:4/4] d6 z2 | e6 z2 | d6 z2 | [Ge]6 z2 | %15
[M:5/8] B-B- B3 |[M:3/8] GB>_d |[M:17/16] c/-c/-c/-c/-c/-c/-c/-c-<c z/ z/ z/ z/ z |[M:4/4] G6 z2 | %19
[M:3/4] [B,EG]6 |] %20
V:2
 z4 z2 G,2 | E,,B,, z B, z A,A,A, | E,,B,,E,B,, E,,2 G,2 | B,,D,F,G, [B,,D,A,]2 [D,=A,]2 | %4
[M:3/4] E,B,, G,,B,, E,,2 |[M:1/4] G,2 |[M:4/4] E,,B,, z B, z G,B,D | A,,C,E,C, A,,2 C2 | %8
 E,,B,,E,A, B,,E,F,B,, |[M:5/8] E,C,B,, G,,E,, |[M:3/8] B,[K:treble]D>F | %11
[M:4/4] A6[K:bass][K:treble] z2 | G6[K:bass][K:treble] z2 | A6[K:bass] z2 | %14
 [G,B,]>F, E,B,, E,B,[K:treble] D>F |[M:5/8] G-G- G3[K:bass] |[M:3/8][K:treble] DG>B | %17
[M:17/16] A/-A/-A/-A/-A/-A/-A/-A-<A z/ z/ z/ z/ z |[M:4/4] E6[K:bass] z2 |[M:3/4] E,6 |] %20
V:3
 x8 | z2 E,2 B,,2 z2 | x8 | x8 |[M:3/4] x6 |[M:1/4] x2 |[M:4/4] z2 E,2 E,,2 z2 | x8 | x8 | %9
[M:5/8] x5 |[M:3/8] x[K:treble] x2 |[M:4/4] z[K:bass] B,, D,>F, z[K:treble] F B>A | %12
 z2 G,>[K:bass]B,, E,B,[K:treble] D>F | z[K:bass] B,, E,>F, z2 [A,B,]2 | x6[K:treble] x2 | %15
[M:5/8] z2 G,>[K:bass]B,,D, |[M:3/8][K:treble] x3 |[M:17/16] z A,,C,>E, z/ z AG>F | %18
[M:4/4] z[K:bass] B,, B,,>B,, B,,2 B,,2 |[M:3/4] x6 |] %20
V:4
 x8 | x8 | x8 | x8 |[M:3/4] x6 |[M:1/4] x2 |[M:4/4] x8 | x8 | x8 |[M:5/8] x5 |[M:3/8] x3 | %11
[M:4/4] z B, B,>B, B,d d>d | z B, B,>B, B,A A>A | z B, B,>B, B,2 [Bd]2 | z z/ B,/ B,B, B,G G>A | %15
[M:5/8] z B,B,>B,B, |[M:3/8] x3 |[M:17/16] z A,A,>B,A,3/2cB>A |[M:4/4] z B, B,>B, B,2 [B,DA]2 | %19
[M:3/4] x6 |] %20

